X:649
%%etbk:tnset id:392,pos:2,rep:3x,ant:
%%etbk:wsite https://thesession.org/tunes/649
%%etbk:video src:ytube,cde:dwqSQeFmT2U,desc:
%%etbk:color #ffffcc
%%etbk:pldat 2016-06-14T18:08,2016-06-13T17:52,2016-03-31T17:32,2015-12-15T17:14,2015-06-11T18:24,2015-05-18T18:23,2015-04-28T17:54,2015-04-20T18:39,2015-04-15T17:02,2015-04-08T17:48,2015-04-06T11:32,2015-04-03T15:04,2015-03-31T18:25
T: The Humours Of Lissadell
Z: Piano Box Version by Martin Fleischmann
H: Created 2015-03-27 /  Last Modified 2016-06-13
R: reel
M: 4/4
L: 1/8
K: Edor
!4!gf |: "em"!2!e!1!B!2!B!1!B !5!e!2!BdB | "D"!1!A2!3!FF !2!E!1!D!2!B,!1!A, | "em"!1!B,!2!E!2!EE B,EG!2!E | "bm"!3!F!5!B!2!~B2 !1!F!2!B!3!d!5!f |
"em"!4!e!2!B!2!B!2!B !5!eBdB | "D"AF~F2 !1!E!2!DD!2!E | "em"!1!B,z!2!E!1!E !1!E!2!F!3!G!4!A | "bm"!2!B!4!d!5!ed "em"!5!e2gf :|
|: "em"eB~B2 "D"!1!A2FA | !4!dc!1!d!3!f ed!2!e!3!f | df~f2 d!3!f!5!b!3!f | !5!afdf "em"edBc |
"D"!4!d2 !5!f!4!d !2!BcdB | !1!A!2!F~F2 !1!AB!4!d!2!e | !3!fedc !1!dfbf | afdf "em"e2gf:|


